X:959
T:Reel 959
M:4/4
K:Amaj
L:1/8
FECE A,B,CE|DCDE FB,B,G|FECE A,ECE|DFED CA,A,G|AECE A,ECE|DB,B,A, B,A,F,A,|AGFE CEEG|FAEC CB,B,2|EAcA Bcdc| (3cBA cA FABc| (3dcB cA BGAG|FAEC CA,A,A,| (3AGA cA dAcA| (3cBA cA BAcA| (3dcB cA BGAF|EFDB, CA,A,2|
